pan-horizontal.svg

<svg fill="currentColor" viewBox="0 0 24 24"><path d="m7 8-4.5 4L7 16zm10 0v8l4.5-4zm-5 2a2 2 0 0 0-2 2 2 2 0 0 0 2 2 2 2 0 0 0 2-2 2 2 0 0 0-2-2"/></svg>

<svg  viewBox="0 0 24 24" fill="currentColor"><path  d="M7,8L2.5,12L7,16V8M17,8V16L21.5,12L17,8M12,10A2,2 0 0,0 10,12A2,2 0 0,0 12,14A2,2 0 0,0 14,12A2,2 0 0,0 12,10Z"/></svg>
